X:2363
L:1/8
M:3/4
K:C
 c2 |:"G7" B>c d2 (f2 |"C" (f2 e>))d c2 |"G7" (e2 d>)c B2 |"C" (c2 B>)A G>c |"G7" B>c d2 (f2 | 
"C" (f2 e>))d c2 |"G7" (e2 d>).c B2 |1"C" .c2 c2"_Fine" c2 :|2"C" .c2 c2 B>A |:[K:G]"G" G2 G2 d>c | 
 B2 B2 g>f |"D7" (fe) (Fe) (Fe) |"G" (d2 .B2) e>d |"C" (dc) E2 (dc) |"G" (cB) D2 c>B | 
"D7" B2 (AB) (AB) |"G" .G2 G2 B>A :|"G" .G2 G2"_>Teil A" c2 |][K:F] A>B |"Gm" .G2 e>d ^c>d | 
"C7" d4 (BE) |"F" .F2 d>c =B>c | c4 (AF) |"C7" (F2 E2) E>G |"F" (G2 F2) F>A |"C7" (A2 G).d .c.B | 
"F" Aa fc (A>B) |"Gm" .G2 e>d ^c>d |"C7" d4 (BE) |"F" .F2 d>c =B>c | c4 (AF) |"C" E>F G2 e2 | 
 g2 fe dc |"G7" =BA G2 e>d |"C7" c4 C>D |]"F" (C2 A)A A>A |"Bb" (D2 B)B B>B |"C7" (Ec) c3 B | 
"F" A>G F2 CD | (C2 A)A A>A |"Bb" (D2 B)B B>B |"C7" c>B A3 G |"F" .F2 F2 z2 |]

